;TIME:9114.85
;Filament used:9.69058m
;Layer height:0.200
; HEADER_BLOCK_START
; generated by Creality_Print V6.1.1.2277 on 2025-11-11 at 23:52:10
; total layer number: 242
; filament_density: 1.27
; filament_diameter: 1.75
; max_z_height: 33.00
; HEADER_BLOCK_END

; MINX = 90.00
; MINY = 74.50
; MINZ = 0.00
; MAXX = 130.00
; MAXY = 145.50
; MAXZ = 33.00

; THUMBNAIL_BLOCK_START

;
; THUMBNAIL_BLOCK_END

; THUMBNAIL_BLOCK_START

;
; THUMBNAIL_BLOCK_END

; external perimeters extrusion width = 0.42mm
; perimeters extrusion width = 0.45mm
; infill extrusion width = 0.45mm
; solid infill extrusion width = 0.42mm
; top infill extrusion width = 0.42mm
; support material extrusion width = 0.40mm
; first layer extrusion width = 0.50mm

; EXECUTABLE_BLOCK_START
M73 P0 R151
M201 X5000 Y5000 Z500 E5000
M203 X500 Y500 Z30 E100
M204 P5000 R2500 T5000 ; sets acceleration (P, T) and retract acceleration (R), mm/sec^2
M205 X10.00 Y10.00 Z0.40 E5.00 ; sets the jerk limits, mm/sec
;TYPE:Custom
M220 S100 ;Reset Feedrate 
M221 S100 ;Reset Flowrate 
 
M140 S85 ;Set final bed temp 
G28 ;Home 
 
G92 E0 ;Reset Extruder 
G1 Z2.0 F3000 ;Move Z Axis up 
M104 S250 ;Set final nozzle temp 
G1 X-2.1 Y20 Z0.28 F5000.0 ;Move to start position 
M190 S85 ;Wait for bed temp to stabilize 
M109 S250 ;Wait for nozzle temp to stabilize 
G1 X-2.1 Y145.0 Z0.28 F1500.0 E15 ;Draw the first line 
G1 X-2.4 Y145.0 Z0.28 F5000.0 ;Move to side a little 
G1 X-2.4 Y20 Z0.28 F1500.0 E30 ;Draw the second line 
G92 E0  ;Reset Extruder 
G1 E-1.0000 F1800 ;Retract a bit 
G1 Z2.0 F3000 ;Move Z Axis up 
G1 E0.0000 F1800
G90
G21
M83 ; use relative distances for extrusion
; filament start gcode
G1 E-1.2 F1800
M106 S0
;LAYER_CHANGE
;Z:0.2
;HEIGHT:0.2
;BEFORE_LAYER_CHANGE
;0.2
G92 E0

;_SET_FAN_SPEED_CHANGING_LAYER
M204 P500
M205 X7 Y7
; printing object Top_servo_Mount_v6_5.stl id:0 copy 0
M204 T500
G1 Z.2 F2700
G1 X92.858 Y90
G1 E1.2 F1800
;TYPE:Support interface
;WIDTH:0.4
G1 X92.858 Y72.858 E.48353
G1 X93.716 Y72.858 E.02418
G1 X93.716 Y90 E.48353
G1 X94.573 Y90 E.02418
G1 X94.573 Y72.858 E.48353
G1 X95.43 Y72.858 E.02418
G1 X95.43 Y90 E.48353
G1 X96.287 Y90 E.02418
G1 X96.287 Y72.858 E.48353
G1 X97.144 Y72.858 E.02418
G1 X97.144 Y90 E.48353
G1 X98.001 Y90 E.02418
G1 X98.001 Y72.858 E.48353
G1 X98.858 Y72.858 E.02418
G1 X98.858 Y90 E.48353
G1 X99.715 Y90 E.02418
G1 X99.715 Y72.858 E.48353
G1 X100.572 Y72.858 E.02418
G1 X100.572 Y90 E.48353
G1 X101.429 Y90 E.02418
G1 X101.429 Y72.858 E.48353
G1 X102.286 Y72.858 E.02418
G1 X102.286 Y90 E.48353
G1 X103.143 Y90 E.02418
G1 X103.143 Y72.858 E.48353
G1 X104 Y72.858 E.02418
G1 X104 Y90 E.48353
G1 X104.858 Y90 E.02418
G1 X104.858 Y72.858 E.48353
G1 X105.715 Y72.858 E.02418
G1 X105.715 Y90 E.48353
G1 X106.572 Y90 E.02418
G1 X106.572 Y72.858 E.48353
G1 X107.429 Y72.858 E.02418
G1 X107.429 Y90 E.48353
G1 X108.286 Y90 E.02418
G1 X108.286 Y72.858 E.48353
G1 X109.143 Y72.858 E.02418
G1 X109.143 Y90 E.48353
G1 X110 Y90 E.02418
G1 X110 Y72.858 E.48353
G1 X110.857 Y72.858 E.02418
G1 X110.857 Y90 E.48353
G1 X111.714 Y90 E.02418
G1 X111.714 Y72.858 E.48353
G1 X112.571 Y72.858 E.02418
G1 X112.571 Y90 E.48353
G1 X113.428 Y90 E.02418
G1 X113.428 Y72.858 E.48353
G1 X114.285 Y72.858 E.02418
G1 X114.285 Y90 E.48353
G1 X115.142 Y90 E.02418
G1 X115.142 Y72.858 E.48353
G1 X116 Y72.858 E.02418
G1 X116 Y90 E.48353
G1 X116.857 Y90 E.02418
G1 X116.857 Y72.858 E.48353
G1 X117.714 Y72.858 E.02418
G1 X117.714 Y90 E.48353
G1 X118.571 Y90 E.02418
G1 X118.571 Y72.858 E.48353
G1 X119.428 Y72.858 E.02418
G1 X119.428 Y90 E.48353
G1 X120.285 Y90 E.02418
G1 X120.285 Y72.858 E.48353
G1 X121.142 Y72.858 E.02418
G1 X121.142 Y90 E.48353
G1 X121.999 Y90 E.02418
G1 X121.999 Y72.858 E.48353
G1 X122.856 Y72.858 E.02418
G1 X122.856 Y90 E.48353
G1 X123.713 Y90 E.02418
G1 X123.713 Y72.858 E.48353
G1 X124.57 Y72.858 E.02418
G1 X124.57 Y90 E.48353
G1 X125.427 Y90 E.02418
G1 X125.427 Y72.858 E.48353
G1 X126.285 Y72.858 E.02418
G1 X126.285 Y90 E.48353
G1 X127.142 Y90 E.02418
G1 X127.142 Y72.858 E.48353
G1 E-1.2
;WIPE_START
G1 X127.142 Y74.858
;WIPE_END
G1 X126.989 Y78.671 Z.4 F2700
G1 X126.214 Y98.077 Z.4
G1 Z.2
G1 E1.2 F1800
;TYPE:Support
;WIDTH:0.5
G1 X93.814 Y98.05 E1.16984
G1 X93.55 Y98.314 E.01346
G1 X93.55 Y115.286 E.61279
G1 X90.929 Y115.286 E.09463
G1 X90.929 Y93.786 E.77626
G1 X126.214 Y93.786 E1.27399
G1 X126.214 Y98.009 E.15247
G1 X125.744 Y97.844 F2700
G1 F1800
G1 X125.744 Y94.198 E.13167
G1 X125.236 Y94.198 E.01834
G1 X125.236 Y97.639 E.12424
G1 X124.728 Y97.639 E.01834
G1 X124.728 Y94.198 E.12424
G1 X124.22 Y94.198 E.01834
G1 X124.22 Y97.639 E.12424
G1 X123.712 Y97.639 E.01834
G1 X123.712 Y94.198 E.12424
G1 X123.205 Y94.198 E.01834
G1 X123.205 Y97.639 E.12424
G1 X122.697 Y97.639 E.01834
G1 X122.697 Y94.198 E.12424
G1 X122.189 Y94.198 E.01834
G1 X122.189 Y97.639 E.12424
G1 X121.681 Y97.639 E.01834
G1 X121.681 Y94.198 E.12424
G1 X121.173 Y94.198 E.01834
G1 X121.173 Y97.639 E.12424
G1 X120.665 Y97.639 E.01834
G1 X120.665 Y94.198 E.12424
G1 X120.157 Y94.198 E.01834
G1 X120.157 Y97.639 E.12424
G1 X119.649 Y97.639 E.01834
G1 X119.649 Y94.198 E.12424
G1 X119.142 Y94.198 E.01834
G1 X119.142 Y97.639 E.12424
G1 X118.634 Y97.639 E.01834
G1 X118.634 Y94.198 E.12424
G1 X118.126 Y94.198 E.01834
G1 X118.126 Y97.639 E.12424
G1 X117.618 Y97.639 E.01834
G1 X117.618 Y94.198 E.12424
G1 X117.11 Y94.198 E.01834
G1 X117.11 Y97.639 E.12424
G1 X116.602 Y97.639 E.01834
G1 X116.602 Y94.198 E.12424
G1 X116.094 Y94.198 E.01834
G1 X116.094 Y97.639 E.12424
G1 X115.587 Y97.639 E.01834
G1 X115.587 Y94.198 E.12424
G1 X115.079 Y94.198 E.01834
G1 X115.079 Y97.639 E.12424
G1 X114.571 Y97.639 E.01834
G1 X114.571 Y94.198 E.12424
G1 X114.063 Y94.198 E.01834
G1 X114.063 Y97.639 E.12424
G1 X113.555 Y97.639 E.01834
G1 X113.555 Y94.198 E.12424
G1 X113.047 Y94.198 E.01834
G1 X113.047 Y97.639 E.12424
G1 X112.539 Y97.639 E.01834
G1 X112.539 Y94.198 E.12424
G1 X112.031 Y94.198 E.01834
G1 X112.031 Y97.639 E.12424
G1 X111.524 Y97.639 E.01834
G1 X111.524 Y94.198 E.12424
G1 X111.016 Y94.198 E.01834
G1 X111.016 Y97.639 E.12424
G1 X110.508 Y97.639 E.01834
G1 X110.508 Y94.198 E.12424
G1 X110 Y94.198 E.01834
G1 X110 Y97.639 E.12424
G1 X109.492 Y97.639 E.01834
G1 X109.492 Y94.198 E.12424
G1 X108.984 Y94.198 E.01834
G1 X108.984 Y97.639 E.12424
G1 X108.476 Y97.639 E.01834
G1 X108.476 Y94.198 E.12424
G1 X107.969 Y94.198 E.01834
G1 X107.969 Y97.639 E.12424
G1 X107.461 Y97.639 E.01834
G1 X107.461 Y94.198 E.12424
G1 X106.953 Y94.198 E.01834
G1 X106.953 Y97.639 E.12424
G1 X106.445 Y97.639 E.01834
G1 X106.445 Y94.198 E.12424
G1 X105.937 Y94.198 E.01834
G1 X105.937 Y97.639 E.12424
G1 X105.429 Y97.639 E.01834
G1 X105.429 Y94.198 E.12424
G1 X104.921 Y94.198 E.01834
G1 X104.921 Y97.639 E.12424
G1 X104.413 Y97.639 E.01834
G1 X104.413 Y94.198 E.12424
G1 X103.906 Y94.198 E.01834
G1 X103.906 Y97.639 E.12424
G1 X103.398 Y97.639 E.01834
G1 X103.398 Y94.198 E.12424
G1 X102.89 Y94.198 E.01834
G1 X102.89 Y97.639 E.12424
G1 X102.382 Y97.639 E.01834
G1 X102.382 Y94.198 E.12424
G1 X101.874 Y94.198 E.01834
G1 X101.874 Y97.639 E.12424
G1 X101.366 Y97.639 E.01834
G1 X101.366 Y94.198 E.12424
G1 X100.858 Y94.198 E.01834
G1 X100.858 Y97.639 E.12424
G1 X100.351 Y97.639 E.01834
G1 X100.351 Y94.198 E.12424
G1 X99.843 Y94.198 E.01834
M73 P0 R150
M73 P0 R150
G1 X99.843 Y97.639 E.12424
G1 X99.335 Y97.639 E.01834
G1 X99.335 Y94.198 E.12424
G1 X98.827 Y94.198 E.01834
G1 X98.827 Y97.639 E.12424
G1 X98.319 Y97.639 E.01834
G1 X98.319 Y94.198 E.12424
G1 X97.811 Y94.198 E.01834
G1 X97.811 Y97.639 E.12424
G1 X97.303 Y97.639 E.01834
G1 X97.303 Y94.198 E.12424
G1 X96.795 Y94.198 E.01834
G1 X96.795 Y97.639 E.12424
G1 X96.288 Y97.639 E.01834
G1 X96.288 Y94.198 E.12424
G1 X95.78 Y94.198 E.01834
G1 X95.78 Y97.639 E.12424
G1 X95.272 Y97.639 E.01834
G1 X95.272 Y94.198 E.12424
G1 X94.764 Y94.198 E.01834
G1 X94.764 Y97.639 E.12424
G1 X94.256 Y97.639 E.01834
G1 X94.256 Y94.198 E.12424
G1 X93.748 Y94.198 E.01834
G1 X93.748 Y97.639 E.12424
G1 X93.24 Y98.041 E.0234
G1 X93.24 Y94.198 E.13879
G1 X92.733 Y94.198 E.01834
G1 X92.733 Y114.874 E.74655
G1 X92.225 Y114.874 E.01834
G1 X92.225 Y94.198 E.74655
G1 X91.717 Y94.198 E.01834
G1 X91.717 Y115.08 E.75398
G1 E-1.2
;WIPE_START
G1 X91.717 Y113.08
;WIPE_END
G1 X91.283 Y116.871 Z.4 F2700
G1 X90.109 Y127.143 Z.4
G1 Z.2
G1 E1.2 F1800
;TYPE:Support interface
;WIDTH:0.4
G1 X90 Y127.143 E.00305
G1 X90 Y115.714 E.32236
G1 X90.287 Y115.714 E.00809
G1 X90.287 Y127.143 E.32236
G1 X91.144 Y127.143 E.02418
G1 X91.144 Y115.714 E.32236
G1 X92.001 Y115.714 E.02418
G1 X92.001 Y127.143 E.32236
G1 X92.858 Y127.143 E.02418
G1 X92.858 Y115.714 E.32236
G1 X93.471 Y115.714 E.01729
G1 X93.471 Y127.143 E.32236
G1 X93.037 Y127.143 E.01226
G1 X93.55 Y127.571 F2700
;TYPE:Support
;WIDTH:0.5
G1 F1800
G1 X93.55 Y140.499 E.46678
G1 X90.929 Y140.499 E.09463
G1 X90.929 Y127.571 E.46678
G1 X93.481 Y127.571 E.09216
G1 X92.733 Y140.294 F2700
G1 F1800
G1 X92.733 Y127.983 E.4445
G1 X92.225 Y127.983 E.01834
G1 X92.225 Y140.088 E.43708
G1 X91.717 Y140.088 E.01834
G1 X91.717 Y127.777 E.4445
G1 E-1.2
;WIPE_START
G1 X91.717 Y129.777
;WIPE_END
G1 X95.522 Y129.492 Z.4 F2700
G1 X126.963 Y127.143 Z.4
G1 Z.2
G1 E1.2 F1800
;TYPE:Support interface
;WIDTH:0.4
G1 X126.529 Y127.143 E.01226
G1 X126.529 Y115.714 E.32236
G1 X127.142 Y115.714 E.01729
G1 X127.142 Y127.143 E.32236
G1 X127.999 Y127.143 E.02418
G1 X127.999 Y115.714 E.32236
G1 X128.856 Y115.714 E.02418
G1 X128.856 Y127.143 E.32236
G1 X129.713 Y127.143 E.02418
G1 X129.713 Y115.714 E.32236
G1 X130 Y115.714 E.00809
G1 X130 Y127.143 E.32236
G1 X129.891 Y127.143 E.00305
G1 E-1.2
;WIPE_START
G1 F2700
G1 X130 Y127.143
G1 X130 Y125.251
;WIPE_END
G1 X128.695 Y121.664 Z.4
G1 X122.4 Y104.362 Z.4
G1 Z.2
G1 E1.2 F1800
;TYPE:Inner wall
;WIDTH:0.499999
G1 X122.4 Y141.9 E1.35536
G1 X97.6 Y141.9 E.89546
G1 X97.6 Y102.1 E1.43705
G1 X122.4 Y102.1 E.89546
G1 X122.4 Y104.322 E.08024
G1 X122.858 Y103.582 F2700
G1 F1800
G1 X122.858 Y142.358 E1.40004
G1 X97.142 Y142.358 E.92847
G1 X97.142 Y101.642 E1.47006
G1 X122.858 Y101.642 E.92847
G1 X122.858 Y103.542 E.06857
G1 X123.315 Y102.801 F2700
G1 F1800
G1 X123.315 Y142.815 E1.44471
G1 X96.685 Y142.815 E.96147
G1 X96.685 Y101.185 E1.50306
G1 X123.315 Y101.185 E.96147
G1 X123.315 Y102.761 E.0569
G1 X123.772 Y102.021 F2700
G1 F1800
G1 X123.772 Y143.272 E1.48939
G1 X96.228 Y143.272 E.99448
G1 X96.228 Y100.728 E1.53607
G1 X123.772 Y100.728 E.99448
G1 X123.772 Y101.981 E.04523
G1 X124.229 Y101.241 F2700
G1 F1800
G1 X124.229 Y143.729 E1.53407
G1 X95.771 Y143.729 E1.02749
M73 P1 R150
M73 P1 R150
G1 X95.771 Y100.271 E1.56908
G1 X124.229 Y100.271 E1.02749
G1 X124.229 Y101.201 E.03356
G1 X124.686 Y100.461 F2700
G1 F1800
G1 X124.686 Y144.186 E1.57874
G1 X95.314 Y144.186 E1.06049
G1 X95.314 Y99.814 E1.60208
G1 X124.686 Y99.814 E1.06049
G1 X124.686 Y100.421 E.0219
G1 X125.143 Y99.857 F2700
G1 F1800
G1 X125.143 Y144.643 E1.61704
G1 X94.857 Y144.643 E1.0935
G1 X94.857 Y99.357 E1.63509
G1 X125.143 Y99.357 E1.0935
G1 X125.143 Y99.817 E.01661
G1 E-1.2
;WIPE_START
G1 F2700
G1 X125.143 Y101.817
;WIPE_END
G1 X125.6 Y98.9 Z.4
G1 Z.2
G1 E1.2 F1800
;TYPE:Outer wall
G1 X125.6 Y145.1 E1.6681
G1 X94.4 Y145.1 E1.12651
G1 X94.4 Y98.9 E1.6681
G1 X125.56 Y98.9 E1.12506
G1 E-1.2
;WIPE_START
G1 F2700
G1 X125.562 Y100.9
;WIPE_END
G1 Z.4
G1 X122.263 Y103.163
G1 Z.4
G1 Z.2
G1 E1.2 F1800
;TYPE:Bottom surface
;WIDTH:0.501073
G1 F2400
G1 X121.543 Y102.442 E.03688
G1 X120.895 Y102.442 E.02345
G1 X122.058 Y103.605 E.05951
G1 X122.058 Y104.253 E.02345
G1 X120.247 Y102.442 E.09268
G1 X119.599 Y102.442 E.02345
G1 X122.058 Y104.901 E.12584
G1 X122.058 Y105.549 E.02345
G1 X118.951 Y102.442 E.159
G1 X118.303 Y102.442 E.02345
G1 X122.058 Y106.197 E.19216
G1 X122.058 Y106.845 E.02345
G1 X117.655 Y102.442 E.22532
G1 X117.007 Y102.442 E.02345
G1 X122.058 Y107.493 E.25849
G1 X122.058 Y108.141 E.02345
G1 X116.359 Y102.442 E.29165
G1 X115.711 Y102.442 E.02345
G1 X122.058 Y108.789 E.32481
G1 X122.058 Y109.437 E.02345
G1 X115.063 Y102.442 E.35797
G1 X114.416 Y102.442 E.02345
G1 X122.058 Y110.084 E.39113
G1 X122.058 Y110.732 E.02345
G1 X113.768 Y102.442 E.42429
G1 X113.12 Y102.442 E.02345
G1 X122.058 Y111.38 E.45746
M73 P1 R149
M73 P1 R149
G1 X122.058 Y112.028 E.02345
G1 X112.472 Y102.442 E.49062
G1 X111.824 Y102.442 E.02345
G1 X122.058 Y112.676 E.52378
G1 X122.058 Y113.324 E.02345
G1 X111.176 Y102.442 E.55694
G1 X110.528 Y102.442 E.02345
G1 X122.058 Y113.972 E.5901
G1 X122.058 Y114.62 E.02345
G1 X109.88 Y102.442 E.62327
G1 X109.232 Y102.442 E.02345
G1 X122.058 Y115.268 E.65643
G1 X122.058 Y115.916 E.02345
G1 X108.584 Y102.442 E.68959
G1 X107.936 Y102.442 E.02345
G1 X122.058 Y116.564 E.72275
G1 X122.058 Y117.212 E.02345
G1 X107.288 Y102.442 E.75591
G1 X106.64 Y102.442 E.02345
G1 X122.058 Y117.86 E.78907
G1 X122.058 Y118.507 E.02345
G1 X105.993 Y102.442 E.82224
G1 X105.345 Y102.442 E.02345
G1 X122.058 Y119.155 E.8554
G1 X122.058 Y119.803 E.02345
G1 X104.697 Y102.442 E.88856
G1 X104.049 Y102.442 E.02345
G1 X122.058 Y120.451 E.92172
G1 X122.058 Y121.099 E.02345
G1 X103.401 Y102.442 E.95488
G1 X102.753 Y102.442 E.02345
G1 X122.058 Y121.747 E.98805
G1 X122.058 Y122.395 E.02345
G1 X102.105 Y102.442 E1.02121
G1 X101.457 Y102.442 E.02345
G1 X122.058 Y123.043 E1.05437
G1 X122.058 Y123.691 E.02345
G1 X100.809 Y102.442 E1.08753
G1 X100.161 Y102.442 E.02345
G1 X122.058 Y124.339 E1.12069
G1 X122.058 Y124.987 E.02345
G1 X99.513 Y102.442 E1.15386
G1 X98.865 Y102.442 E.02345
G1 X122.058 Y125.635 E1.18702
G1 X122.058 Y126.283 E.02345
G1 X98.217 Y102.442 E1.22018
G1 X97.942 Y102.442 E.00995
G1 X97.942 Y102.815 E.01349
G1 X122.058 Y126.931 E1.23426
G1 X122.058 Y127.578 E.02345
G1 X97.942 Y103.463 E1.23426
G1 X97.942 Y104.111 E.02345
G1 X122.058 Y128.226 E1.23426
G1 X122.058 Y128.874 E.02345
G1 X97.942 Y104.759 E1.23426
G1 X97.942 Y105.407 E.02345
G1 X122.058 Y129.522 E1.23426
G1 X122.058 Y130.17 E.02345
G1 X97.942 Y106.055 E1.23426
G1 X97.942 Y106.703 E.02345
G1 X122.058 Y130.818 E1.23426
G1 X122.058 Y131.466 E.02345
G1 X97.942 Y107.351 E1.23426
G1 X97.942 Y107.999 E.02345
G1 X122.058 Y132.114 E1.23426
G1 X122.058 Y132.762 E.02345
G1 X97.942 Y108.647 E1.23426
G1 X97.942 Y109.294 E.02345
G1 X122.058 Y133.41 E1.23426
G1 X122.058 Y134.058 E.02345
G1 X97.942 Y109.942 E1.23426
G1 X97.942 Y110.59 E.02345
G1 X122.058 Y134.706 E1.23426
G1 X122.058 Y135.354 E.02345
G1 X97.942 Y111.238 E1.23426
G1 X97.942 Y111.886 E.02345
G1 X122.058 Y136.001 E1.23426
G1 X122.058 Y136.649 E.02345
G1 X97.942 Y112.534 E1.23426
G1 X97.942 Y113.182 E.02345
G1 X122.058 Y137.297 E1.23426
G1 X122.058 Y137.945 E.02345
G1 X97.942 Y113.83 E1.23426
G1 X97.942 Y114.478 E.02345
G1 X122.058 Y138.593 E1.23426
G1 X122.058 Y139.241 E.02345
G1 X97.942 Y115.126 E1.23426
G1 X97.942 Y115.774 E.02345
G1 X122.058 Y139.889 E1.23426
G1 X122.058 Y140.537 E.02345
G1 X97.942 Y116.422 E1.23426
G1 X97.942 Y117.07 E.02345
G1 X122.058 Y141.185 E1.23426
G1 X122.058 Y141.558 E.01349
G1 X121.782 Y141.558 E.00996
G1 X97.942 Y117.718 E1.22017
G1 X97.942 Y118.365 E.02345
G1 X121.135 Y141.558 E1.18701
G1 X120.487 Y141.558 E.02345
G1 X97.942 Y119.013 E1.15385
G1 X97.942 Y119.661 E.02345
G1 X119.839 Y141.558 E1.12069
G1 X119.191 Y141.558 E.02345
G1 X97.942 Y120.309 E1.08753
G1 X97.942 Y120.957 E.02345
G1 X118.543 Y141.558 E1.05436
G1 X117.895 Y141.558 E.02345
G1 X97.942 Y121.605 E1.0212
G1 X97.942 Y122.253 E.02345
G1 X117.247 Y141.558 E.98804
G1 X116.599 Y141.558 E.02345
G1 X97.942 Y122.901 E.95488
G1 X97.942 Y123.549 E.02345
G1 X115.951 Y141.558 E.92172
G1 X115.303 Y141.558 E.02345
G1 X97.942 Y124.197 E.88855
G1 X97.942 Y124.845 E.02345
G1 X114.655 Y141.558 E.85539
G1 X114.007 Y141.558 E.02345
G1 X97.942 Y125.493 E.82223
G1 X97.942 Y126.141 E.02345
G1 X113.359 Y141.558 E.78907
G1 X112.711 Y141.558 E.02345
G1 X97.942 Y126.789 E.75591
G1 X97.942 Y127.436 E.02345
G1 X112.064 Y141.558 E.72275
G1 X111.416 Y141.558 E.02345
G1 X97.942 Y128.084 E.68958
G1 X97.942 Y128.732 E.02345
G1 X110.768 Y141.558 E.65642
G1 X110.12 Y141.558 E.02345
G1 X97.942 Y129.38 E.62326
G1 X97.942 Y130.028 E.02345
G1 X109.472 Y141.558 E.5901
